X:30
T: SEID NUR LUSTIG UND FROEHLICH
N: F0091
O: Europa, Mitteleuropa, Deutschland
R: Handwerker -, Handwerksburschen -, Wander - Lied
M: 3/4
L: 1/16
K: G
 | d6d2d2c2 | B4c4d4 |
d4e2d2c2B2 | B2A2A6z2 |
d3ed2c2B2z2 | d3ed2c2B2z2 |
G2A2A2G2A2A2 | A4A2B4z2

@@@ Tune index: 5461
